frontend/public/favicon.svg

<?xml version="1.0" encoding="utf-8"?><svg version="1.1" id="Layer_1" xmlns="http://www.w3.org/2000/svg" xmlns:xlink="http://www.w3.org/1999/xlink" x="0px" y="0px" viewBox="0 0 121.78 122.88" style="enable-background:new 0 0 121.78 122.88" xml:space="preserve"><style type="text/css">.st0{fill-rule:evenodd;clip-rule:evenodd;}</style><g><path class="st0" d="M30.06,0h61.65c3.43,0,6.23,2.81,6.23,6.23v6.47H23.83V6.23C23.83,2.8,26.63,0,30.06,0L30.06,0z M11.23,38.38 h99.32c6.18,0,11.23,5.05,11.23,11.23v62.04c0,6.18-5.05,11.23-11.23,11.23H11.23C5.05,122.88,0,117.83,0,111.65V49.61 C0,43.43,5.05,38.38,11.23,38.38L11.23,38.38z M54.11,58.38L81.4,77.41c0.45,0.29,0.86,0.67,1.18,1.13 c1.28,1.85,0.81,4.39-1.04,5.67L54.37,103c-0.7,0.58-1.6,0.92-2.59,0.92c-2.26,0-4.09-1.83-4.09-4.09V61.72h0.02 c0-0.81,0.24-1.62,0.73-2.33C49.73,57.54,52.27,57.09,54.11,58.38L54.11,58.38z M18.14,18.81h85.49c3.43,0,6.23,2.81,6.23,6.23 v6.72H11.91v-6.72C11.91,21.61,14.71,18.81,18.14,18.81L18.14,18.81z"/></g></svg>

<svg width="122" height="123" viewBox="0 0 122 123" fill="none" xmlns="http://www.w3.org/2000/svg">
<g clip-path="url(#clip0_1_2)">
<path fill-rule="evenodd" clip-rule="evenodd" d="M30.06 0H91.71C95.14 0 97.94 2.81 97.94 6.23V12.7H23.83V6.23C23.83 2.8 26.63 0 30.06 0ZM11.23 38.38H110.55C116.73 38.38 121.78 43.43 121.78 49.61V111.65C121.78 117.83 116.73 122.88 110.55 122.88H11.23C5.05 122.88 0 117.83 0 111.65V49.61C0 43.43 5.05 38.38 11.23 38.38ZM54.11 58.38L81.4 77.41C81.85 77.7 82.26 78.08 82.58 78.54C83.86 80.39 83.39 82.93 81.54 84.21L54.37 103C53.67 103.58 52.77 103.92 51.78 103.92C49.52 103.92 47.69 102.09 47.69 99.83V61.72H47.71C47.71 60.91 47.95 60.1 48.44 59.39C49.73 57.54 52.27 57.09 54.11 58.38ZM18.14 18.81H103.63C107.06 18.81 109.86 21.62 109.86 25.04V31.76H11.91V25.04C11.91 21.61 14.71 18.81 18.14 18.81Z" fill="#660D99"/>
</g>
<defs>
<clipPath id="clip0_1_2">
<rect width="121.78" height="122.88" fill="white"/>
</clipPath>
</defs>
</svg>
